common/src/main/resources/glyphs/plugins/aop/gutter/abstract_advice.svg

<svg xmlns="http://www.w3.org/2000/svg" width="12" height="12" fill="#FF8A65" viewBox="0 0 24 24"><path d="M20 11h3v2h-3zM1 11h3v2H1zM13 1v3h-2V1zM4.92 3.5l2.13 2.14-1.42 1.41L3.5 4.93zm12.03 2.13 2.12-2.13 1.43 1.43-2.13 2.12zM12 6a6 6 0 0 1 6 6c0 2.22-1.21 4.16-3 5.2V19a1 1 0 0 1-1 1h-4a1 1 0 0 1-1-1v-1.8c-1.79-1.04-3-2.98-3-5.2a6 6 0 0 1 6-6m2 15v1a1 1 0 0 1-1 1h-2a1 1 0 0 1-1-1v-1zm-3-3h2v-2.13c1.73-.44 3-2.01 3-3.87a4 4 0 0 0-4-4 4 4 0 0 0-4 4c0 1.86 1.27 3.43 3 3.87z"/></svg>

<!--
  - The MIT License (MIT)
  -
  - Copyright (c) 2015-2022 Elior "Mallowigi" Boukhobza
  -
  - Permission is hereby granted, free of charge, to any person obtaining a copy
  - of this software and associated documentation files (the "Software"), to deal
  - in the Software without restriction, including without limitation the rights
  - to use, copy, modify, merge, publish, distribute, sublicense, and/or sell
  - copies of the Software, and to permit persons to whom the Software is
  - furnished to do so, subject to the following conditions:
  -
  - The above copyright notice and this permission notice shall be included in all
  - copies or substantial portions of the Software.
  -
  - THE SOFTWARE IS PROVIDED "AS IS", WITHOUT WARRANTY OF ANY KIND, EXPRESS OR
  - IMPLIED, INCLUDING BUT NOT LIMITED TO THE WARRANTIES OF MERCHANTABILITY,
  - FITNESS FOR A PARTICULAR PURPOSE AND NONINFRINGEMENT. IN NO EVENT SHALL THE
  - AUTHORS OR COPYRIGHT HOLDERS BE LIABLE FOR ANY CLAIM, DAMAGES OR OTHER
  - LIABILITY, WHETHER IN AN ACTION OF CONTRACT, TORT OR OTHERWISE, ARISING FROM,
  - OUT OF OR IN CONNECTION WITH THE SOFTWARE OR THE USE OR OTHER DEALINGS IN THE
  - SOFTWARE.
  -
  -
  -->


<svg xmlns="http://www.w3.org/2000/svg" version="1.1" width="12px" height="12px" fill="#FF8A65"
     viewBox="0 0 24 24">
  <path
    d="M20,11H23V13H20V11M1,11H4V13H1V11M13,1V4H11V1H13M4.92,3.5L7.05,5.64L5.63,7.05L3.5,4.93L4.92,3.5M16.95,5.63L19.07,3.5L20.5,4.93L18.37,7.05L16.95,5.63M12,6A6,6 0 0,1 18,12C18,14.22 16.79,16.16 15,17.2V19A1,1 0 0,1 14,20H10A1,1 0 0,1 9,19V17.2C7.21,16.16 6,14.22 6,12A6,6 0 0,1 12,6M14,21V22A1,1 0 0,1 13,23H11A1,1 0 0,1 10,22V21H14M11,18H13V15.87C14.73,15.43 16,13.86 16,12A4,4 0 0,0 12,8A4,4 0 0,0 8,12C8,13.86 9.27,15.43 11,15.87V18Z" />
</svg>
